X: 7503
T:the New-Rigged Ship (jig)
T:Miss Finlay's Delight
R:Jig
O:Shetland
O:Scotland
M:6/8
K:D
A|\
d2d def|d2d def|ecA ABA|ecA ABc|\
d2d def|d2d def|ecA ABc|d3 d2::
f|\
a2f a2f|d2d dfa|b2g b2g|e2e efg|\
a2f a2f|d2d ecA|Bcd ecA|d3 d2:|
